public/img/icons/dashboard.svg

<svg height="18" viewBox="0 0 18 18" width="18" xmlns="http://www.w3.org/2000/svg"><path d="m2 2v4h4v-4zm-2-2h8v8h-8zm12 2v4h4v-4zm-2-2h8v8h-8zm2 12v4h4v-4zm-2-2h8v8h-8zm-8 2v4h4v-4zm-2-2h8v8h-8z" /></svg>

<svg id="Dashboard" xmlns="http://www.w3.org/2000/svg" viewBox="0 0 18 18"><path d="M18,8H10V0h8ZM12,6h4V2H12Z"/><path d="M8,8H0V0H8ZM2,6H6V2H2Z"/><path d="M18,18H10V10h8Zm-6-2h4V12H12Z"/><path d="M8,18H0V10H8ZM2,16H6V12H2Z"/></svg>
